dist/assets/img/message/message-6.svg

<svg width="483" height="283" viewBox="0 0 483 283" fill="none" xmlns="http://www.w3.org/2000/svg">
<g filter="url(#filter0_di_1327_58213)">
<path fill-rule="evenodd" clip-rule="evenodd" d="M426.542 175.185C423.438 172.385 423.975 167.646 426.596 164.391C431.021 158.898 433.833 152.641 434.654 145.458C440.8 91.6826 364.108 52.766 285.517 36.2883C207.964 20.0286 118.238 26.0548 70.2742 69.0611C22.1441 112.217 33.8968 173.406 87.8833 213.496C126.55 242.209 188.008 229.606 245.387 217.839C252.07 216.469 258.697 215.11 265.226 213.828C276.761 211.565 288.926 209.491 301.227 207.394C337.757 201.166 375.491 194.732 401.514 182.53C403.957 181.384 406.79 181.453 409.222 182.621C418.249 186.955 431.464 190.905 442.257 187.462C443.149 187.178 443.219 186.001 442.399 185.548C436.28 182.166 431.119 179.314 426.542 175.185Z" fill="white"/>
</g>
<defs>
<filter id="filter0_di_1327_58213" x="0" y="0" width="482.973" height="283" filterUnits="userSpaceOnUse" color-interpolation-filters="sRGB">
<feFlood flood-opacity="0" result="BackgroundImageFix"/>
<feColorMatrix in="SourceAlpha" type="matrix" values="0 0 0 0 0 0 0 0 0 0 0 0 0 0 0 0 0 0 127 0" result="hardAlpha"/>
<feOffset dy="12"/>
<feGaussianBlur stdDeviation="20"/>
<feComposite in2="hardAlpha" operator="out"/>
<feColorMatrix type="matrix" values="0 0 0 0 0.909804 0 0 0 0 0.313726 0 0 0 0 0.470588 0 0 0 1 0"/>
<feBlend mode="normal" in2="BackgroundImageFix" result="effect1_dropShadow_1327_58213"/>
<feBlend mode="normal" in="SourceGraphic" in2="effect1_dropShadow_1327_58213" result="shape"/>
<feColorMatrix in="SourceAlpha" type="matrix" values="0 0 0 0 0 0 0 0 0 0 0 0 0 0 0 0 0 0 127 0" result="hardAlpha"/>
<feOffset dy="-4"/>
<feGaussianBlur stdDeviation="4"/>
<feComposite in2="hardAlpha" operator="arithmetic" k2="-1" k3="1"/>
<feColorMatrix type="matrix" values="0 0 0 0 0.909804 0 0 0 0 0.313726 0 0 0 0 0.470588 0 0 0 0.16 0"/>
<feBlend mode="normal" in2="shape" result="effect2_innerShadow_1327_58213"/>
</filter>
</defs>
</svg>

<svg width="483" height="283" viewBox="0 0 483 283" fill="none" xmlns="http://www.w3.org/2000/svg"><g filter="url(#filter0_di_1327_58213)"><path fill-rule="evenodd" clip-rule="evenodd" d="M426.542 175.185c-3.104-2.8-2.567-7.539.054-10.794 4.425-5.493 7.237-11.75 8.058-18.933 6.146-53.775-70.546-92.692-149.137-109.17-77.553-16.26-167.279-10.233-215.243 32.773-48.13 43.156-36.377 104.345 17.61 144.435 38.666 28.713 100.124 16.11 157.503 4.343 6.683-1.37 13.31-2.729 19.839-4.011 11.535-2.263 23.7-4.337 36.001-6.434 36.53-6.228 74.264-12.662 100.287-24.864 2.443-1.146 5.276-1.077 7.708.091 9.027 4.334 22.242 8.284 33.035 4.841.892-.284.962-1.461.142-1.914-6.119-3.382-11.28-6.234-15.857-10.363z" fill="#fff"/></g><defs><filter id="filter0_di_1327_58213" x="0" y="0" width="482.973" height="283" filterUnits="userSpaceOnUse" color-interpolation-filters="sRGB"><feFlood flood-opacity="0" result="BackgroundImageFix"/><feColorMatrix in="SourceAlpha" values="0 0 0 0 0 0 0 0 0 0 0 0 0 0 0 0 0 0 127 0" result="hardAlpha"/><feOffset dy="12"/><feGaussianBlur stdDeviation="20"/><feComposite in2="hardAlpha" operator="out"/><feColorMatrix values="0 0 0 0 0.909804 0 0 0 0 0.313726 0 0 0 0 0.470588 0 0 0 1 0"/><feBlend in2="BackgroundImageFix" result="effect1_dropShadow_1327_58213"/><feBlend in="SourceGraphic" in2="effect1_dropShadow_1327_58213" result="shape"/><feColorMatrix in="SourceAlpha" values="0 0 0 0 0 0 0 0 0 0 0 0 0 0 0 0 0 0 127 0" result="hardAlpha"/><feOffset dy="-4"/><feGaussianBlur stdDeviation="4"/><feComposite in2="hardAlpha" operator="arithmetic" k2="-1" k3="1"/><feColorMatrix values="0 0 0 0 0.909804 0 0 0 0 0.313726 0 0 0 0 0.470588 0 0 0 0.16 0"/><feBlend in2="shape" result="effect2_innerShadow_1327_58213"/></filter></defs></svg>
